X:7999
T:Jim Donoghue's
R:reel
D:Kevin Crawford: D flute album
Z:id:hn-reel-638
M:C|
K:D
~A3F BFAF|BFAF EDB,D|~A3F BFAF|EDEF ~D3z|
~A3F BFAF|DF~F2 ABde|~f3e dfec|1 dBAF ~D3z:|2 dBAF DEFA||
|:dffe ~f3e|dfed BAFA|Beed e2de|f2df edBA|
dffe ~f3e|dfed BAFA|ABde fdAF|1 EDEF DEFA:|2 EDEF ~D3z||
